img/why-we/pinion-tablet.svg

<svg width="46" height="46" viewBox="0 0 46 46" fill="none" xmlns="http://www.w3.org/2000/svg">
<g clip-path="url(#clip0_359_394)">
<path d="M43.1465 18.6444L39.4565 17.8264C39.169 16.9064 38.7924 16.0267 38.3611 15.18L40.3578 11.8551C41.1024 10.6634 41.479 8.9125 40.3578 7.78837L38.3237 5.75575C37.2025 4.63306 35.3078 4.83575 34.1636 5.62925L30.9278 7.69062C30.0883 7.25506 29.21 6.88131 28.2986 6.58662L27.4706 2.852C27.2234 1.48206 26.0259 0 24.4375 0H21.5625C19.9755 0 19.0023 1.50506 18.6875 2.875L17.7646 6.56506C16.79 6.87556 15.8556 7.27231 14.9643 7.74237L11.6466 5.62925C10.5038 4.83575 8.60772 4.6345 7.48647 5.75575L5.45241 7.78837C4.32972 8.9125 4.70635 10.6634 5.45241 11.8536L7.5526 15.3539C7.15872 16.1474 6.80941 16.9682 6.53916 17.8264L2.85054 18.6444C1.4806 18.8902 -0.00146484 20.0891 -0.00146484 21.6761V24.5511C-0.00146484 26.1395 1.5036 27.1127 2.87354 27.4261L6.60816 28.359C6.86547 29.1511 7.18891 29.9115 7.55404 30.6489L5.45241 34.1536C4.70779 35.3438 4.33116 37.0961 5.45241 38.2188L7.48647 40.2514C8.60772 41.3756 10.5023 41.1714 11.6466 40.3794L14.9715 38.2605C15.8671 38.7334 16.8072 39.1345 17.789 39.4436L18.709 43.1221C19.0238 44.4921 19.997 45.9971 21.584 45.9971H24.459C26.0475 45.9971 27.2449 44.5136 27.4922 43.1437L28.3216 39.4004C29.2243 39.1086 30.0897 38.7406 30.9206 38.3108L34.1636 40.3779C35.3078 41.1714 37.2025 41.3727 38.3252 40.25L40.3592 38.2174C41.4805 37.0932 41.1039 35.3424 40.3592 34.1521L38.3611 30.8214C38.7622 30.0322 39.11 29.2114 39.3904 28.3576L43.1264 27.4246C44.4963 27.1098 46.0014 26.1381 46.0014 24.5496V21.6746C46.0014 20.0876 44.5194 18.8887 43.148 18.6415L43.1465 18.6444ZM43.1264 24.3498C43.0042 24.4375 42.7742 24.5582 42.4824 24.6258L37.1522 25.9569L36.6577 27.4677C36.4348 28.1491 36.1459 28.8391 35.7995 29.5205L35.0779 30.9379L37.8939 35.6342C38.0736 35.9217 38.157 36.179 38.1828 36.3314L36.2911 38.2202C36.1085 38.1627 35.9015 38.088 35.8009 38.019L31.0687 35.0017L29.5981 35.7621C28.8894 36.1301 28.162 36.4349 27.4375 36.6692L25.8707 37.1752L24.6862 42.527C24.6315 42.8131 24.4777 43.0445 24.3728 43.1264H21.7853C21.6976 43.0042 21.5768 42.7742 21.5107 42.4824L20.1868 37.191L18.6544 36.7051C17.8652 36.4564 17.0775 36.1244 16.3113 35.7219L14.8335 34.9413L10.0998 37.9586C9.90579 38.0894 9.69879 38.1642 9.51191 38.1642L7.62735 36.3299C7.65322 36.1804 7.73085 35.9361 7.88754 35.6845L10.8272 30.7855L10.1272 29.3767C9.80085 28.7126 9.5421 28.0902 9.34085 27.4721L8.84779 25.9598L3.57072 24.6402C3.23866 24.5654 2.9986 24.4404 2.87354 24.3527V21.6789C2.87354 21.6789 2.87641 21.6804 2.88072 21.6804C2.9296 21.6804 3.16535 21.5122 3.36229 21.4762L8.78454 20.2759L9.28191 18.6904C9.4846 18.0449 9.7606 17.3722 10.1272 16.6347L10.8272 15.226L7.91772 10.3773C7.73804 10.0884 7.65322 9.83106 7.62879 9.68012L9.5191 7.79125C9.7031 7.85019 9.90866 7.92494 10.0078 7.9925L14.8292 11.0659L16.3055 10.2867C17.0631 9.88712 17.848 9.55794 18.6372 9.30637L20.1652 8.8205L21.4762 3.57506C21.5524 3.243 21.6746 3.00294 21.7637 2.87787H24.436C24.4159 2.90662 24.6014 3.15819 24.6402 3.36519L25.8477 8.81906L27.4131 9.32506C28.1477 9.56225 28.8837 9.87131 29.6024 10.2436L31.073 11.0084L35.7075 8.05719C35.9015 7.92494 36.1085 7.85162 36.2954 7.85162L38.1828 9.68587C38.1584 9.83537 38.0793 10.0826 37.9227 10.3327L35.0764 15.0707L35.8023 16.491C36.1948 17.2572 36.4924 17.9759 36.7152 18.6889L37.2125 20.2759L42.527 21.4547C42.849 21.5136 43.0991 21.7005 43.1508 21.8011L43.1264 24.3498ZM23.0187 14.3606C18.2447 14.3606 14.3606 18.2376 14.3606 23C14.3606 27.7624 18.2447 31.6394 23.0187 31.6394C27.7926 31.6394 31.6767 27.7624 31.6767 23.0014C31.6767 18.239 27.7926 14.3621 23.0187 14.3621V14.3606ZM23 28.75C19.8303 28.75 17.25 26.1711 17.25 23C17.25 19.8289 19.8288 17.25 23 17.25C26.1711 17.25 28.75 19.8289 28.75 23C28.75 26.1711 26.1711 28.75 23 28.75Z" fill="#FBD8D5"/>
</g>
<defs>
<clipPath id="clip0_359_394">
<rect width="46" height="46" fill="white"/>
</clipPath>
</defs>
</svg>

<svg width="46" height="46" fill="none" xmlns="http://www.w3.org/2000/svg"><g clip-path="url(#clip0_359_394)"><path d="M43.147 18.644l-3.69-.818c-.288-.92-.665-1.8-1.096-2.646l1.997-3.325c.744-1.192 1.121-2.943 0-4.067l-2.034-2.032c-1.121-1.123-3.016-.92-4.16-.127l-3.236 2.062c-.84-.436-1.718-.81-2.63-1.104l-.827-3.735C27.223 1.482 26.026 0 24.437 0h-2.875c-1.587 0-2.56 1.505-2.875 2.875l-.922 3.69c-.975.31-1.91.707-2.8 1.177L11.646 5.63c-1.143-.793-3.04-.994-4.16.127L5.451 7.788c-1.122 1.124-.746 2.875 0 4.066l2.1 3.5a17.157 17.157 0 00-1.013 2.472l-3.688.818c-1.37.246-2.852 1.445-2.852 3.032v2.875c0 1.589 1.505 2.562 2.875 2.875l3.734.933c.257.792.58 1.552.946 2.29l-2.102 3.505c-.744 1.19-1.12 2.942 0 4.065l2.034 2.032c1.122 1.125 3.016.92 4.16.128l3.325-2.118a17.08 17.08 0 002.818 1.183l.92 3.678c.315 1.37 1.288 2.875 2.875 2.875h2.875c1.588 0 2.786-1.483 3.033-2.853l.83-3.744a17.04 17.04 0 002.599-1.09l3.243 2.068c1.144.793 3.038.995 4.161-.128l2.034-2.033c1.121-1.124.745-2.875 0-4.065l-1.998-3.33c.401-.79.749-1.61 1.03-2.464l3.735-.933C44.495 27.11 46 26.138 46 24.55v-2.875c0-1.587-1.482-2.786-2.853-3.034l-.002.003zm-.02 5.706a1.887 1.887 0 01-.645.276l-5.33 1.33-.494 1.512a14.5 14.5 0 01-.858 2.052l-.722 1.418 2.816 4.696c.18.288.263.545.289.697l-1.892 1.89c-.182-.058-.39-.133-.49-.202l-4.732-3.017-1.47.76c-.71.368-1.437.673-2.162.907l-1.566.506-1.185 5.352c-.055.286-.208.517-.313.6h-2.588a1.86 1.86 0 01-.274-.645l-1.324-5.291-1.533-.486a14.323 14.323 0 01-2.343-.983l-1.477-.78-4.734 3.017c-.194.13-.401.205-.588.205L7.627 36.33a1.91 1.91 0 01.26-.645l2.94-4.9-.7-1.408a14.433 14.433 0 01-.786-1.905l-.493-1.512-5.277-1.32a2.033 2.033 0 01-.697-.287v-2.674l.007.001c.049 0 .284-.168.481-.204l5.423-1.2.497-1.586a14.11 14.11 0 01.845-2.055l.7-1.409-2.91-4.849a2.041 2.041 0 01-.288-.697l1.89-1.889c.184.06.39.134.489.201l4.821 3.074 1.476-.78a14.37 14.37 0 012.332-.98l1.528-.486 1.311-5.245c.076-.332.199-.572.288-.697h2.672c-.02.029.165.28.204.487l1.208 5.454 1.565.506c.735.237 1.47.546 2.19.919l1.47.764 4.635-2.95c.194-.133.4-.206.587-.206l1.888 1.834c-.025.15-.104.397-.26.647l-2.847 4.738.726 1.42c.393.766.69 1.485.913 2.198l.497 1.587 5.315 1.179c.322.059.572.246.624.346l-.025 2.549zm-20.108-9.99c-4.774 0-8.658 3.878-8.658 8.64 0 4.762 3.884 8.64 8.658 8.64 4.774 0 8.658-3.878 8.658-8.639 0-4.762-3.884-8.639-8.658-8.639v-.001zM23 28.75A5.757 5.757 0 0117.25 23 5.756 5.756 0 0123 17.25 5.756 5.756 0 0128.75 23 5.756 5.756 0 0123 28.75z" fill="#FBD8D5"/></g><defs><clipPath id="clip0_359_394"><path fill="#fff" d="M0 0h46v46H0z"/></clipPath></defs></svg>
